core/assets/icons/settings.outline.svg

<svg width="24" height="24" viewBox="0 0 24 24" xmlns="http://www.w3.org/2000/svg"><g id="type=outline"><path id="Vector" d="M2 12C2 11.135 2.11 10.297 2.316 9.496C2.86847 9.52504 3.4182 9.40075 3.90444 9.13687C4.39068 8.87299 4.79448 8.47979 5.07121 8.00074C5.34793 7.5217 5.48681 6.97546 5.47247 6.42242C5.45814 5.86938 5.29117 5.33107 4.99 4.867C6.19894 3.67757 7.69079 2.8155 9.325 2.362C9.57599 2.85547 9.95864 3.26987 10.4306 3.55931C10.9025 3.84875 11.4454 4.00195 11.999 4.00195C12.5526 4.00195 13.0955 3.84875 13.5674 3.55931C14.0394 3.26987 14.422 2.85547 14.673 2.362C16.3072 2.8155 17.7991 3.67757 19.008 4.867C18.7065 5.33115 18.5393 5.86967 18.5248 6.42296C18.5104 6.97626 18.6493 7.52276 18.9262 8.00201C19.2031 8.48126 19.6071 8.87457 20.0937 9.13841C20.5802 9.40226 21.1303 9.52637 21.683 9.497C21.889 10.297 21.999 11.135 21.999 12C21.999 12.865 21.889 13.703 21.683 14.504C21.1305 14.4748 20.5806 14.5989 20.0942 14.8627C19.6078 15.1265 19.2039 15.5197 18.927 15.9988C18.6502 16.4779 18.5112 17.0242 18.5255 17.5773C18.5398 18.1304 18.7068 18.6689 19.008 19.133C17.7991 20.3224 16.3072 21.1845 14.673 21.638C14.422 21.1445 14.0394 20.7301 13.5674 20.4407C13.0955 20.1512 12.5526 19.998 11.999 19.998C11.4454 19.998 10.9025 20.1512 10.4306 20.4407C9.95864 20.7301 9.57599 21.1445 9.325 21.638C7.69079 21.1845 6.19894 20.3224 4.99 19.133C5.29151 18.6688 5.45873 18.1303 5.47317 17.577C5.48761 17.0237 5.3487 16.4772 5.07181 15.998C4.79492 15.5187 4.39085 15.1254 3.90431 14.8616C3.41776 14.5977 2.8677 14.4736 2.315 14.503C2.11 13.704 2 12.866 2 12ZM6.804 15C7.434 16.091 7.614 17.346 7.368 18.524C7.776 18.814 8.21 19.065 8.665 19.274C9.58167 18.4528 10.7693 17.9991 12 18C13.26 18 14.438 18.471 15.335 19.274C15.79 19.065 16.224 18.814 16.632 18.524C16.3794 17.32 16.5803 16.0651 17.196 15C17.8106 13.9344 18.797 13.1332 19.966 12.75C20.0122 12.2511 20.0122 11.7489 19.966 11.25C18.7966 10.8671 17.8099 10.0658 17.195 9C16.5793 7.93493 16.3784 6.68003 16.631 5.476C16.2231 5.18592 15.7889 4.93482 15.334 4.726C14.4176 5.54693 13.2303 6.00061 12 6C10.7693 6.00085 9.58167 5.54716 8.665 4.726C8.21013 4.93482 7.77589 5.18593 7.368 5.476C7.62056 6.68003 7.41972 7.93493 6.804 9C6.18937 10.0656 5.20298 10.8668 4.034 11.25C3.98775 11.7489 3.98775 12.2511 4.034 12.75C5.20335 13.1329 6.19013 13.9342 6.805 15H6.804ZM12 15C11.2044 15 10.4413 14.6839 9.87868 14.1213C9.31607 13.5587 9 12.7956 9 12C9 11.2044 9.31607 10.4413 9.87868 9.87868C10.4413 9.31607 11.2044 9 12 9C12.7956 9 13.5587 9.31607 14.1213 9.87868C14.6839 10.4413 15 11.2044 15 12C15 12.7956 14.6839 13.5587 14.1213 14.1213C13.5587 14.6839 12.7956 15 12 15ZM12 13C12.2652 13 12.5196 12.8946 12.7071 12.7071C12.8946 12.5196 13 12.2652 13 12C13 11.7348 12.8946 11.4804 12.7071 11.2929C12.5196 11.1054 12.2652 11 12 11C11.7348 11 11.4804 11.1054 11.2929 11.2929C11.1054 11.4804 11 11.7348 11 12C11 12.2652 11.1054 12.5196 11.2929 12.7071C11.4804 12.8946 11.7348 13 12 13V13Z"/></g></svg>

<svg xmlns="http://www.w3.org/2000/svg" width="24" height="24" fill="none"><path fill="#191C22" d="M2 12c0-.865.11-1.703.316-2.504A3 3 0 0 0 4.99 4.867a9.99 9.99 0 0 1 4.335-2.505 3 3 0 0 0 5.348 0 9.99 9.99 0 0 1 4.335 2.505 3 3 0 0 0 2.675 4.63 10.036 10.036 0 0 1 0 5.007 3 3 0 0 0-2.675 4.629 9.99 9.99 0 0 1-4.335 2.505 3 3 0 0 0-5.348 0 9.99 9.99 0 0 1-4.335-2.505 3 3 0 0 0-2.675-4.63A10.056 10.056 0 0 1 2 12Zm4.804 3c.63 1.091.81 2.346.564 3.524.408.29.842.541 1.297.75A4.993 4.993 0 0 1 12 18c1.26 0 2.438.471 3.335 1.274.455-.209.889-.46 1.297-.75A4.993 4.993 0 0 1 17.196 15a4.993 4.993 0 0 1 2.77-2.25 8.134 8.134 0 0 0 0-1.5A4.993 4.993 0 0 1 17.195 9a4.993 4.993 0 0 1-.564-3.524 7.988 7.988 0 0 0-1.297-.75A4.993 4.993 0 0 1 12 6a4.993 4.993 0 0 1-3.335-1.274 7.99 7.99 0 0 0-1.297.75A4.993 4.993 0 0 1 6.804 9a4.993 4.993 0 0 1-2.77 2.25 8.125 8.125 0 0 0 0 1.5A4.993 4.993 0 0 1 6.805 15h-.001ZM12 15a3 3 0 1 1 0-6 3 3 0 0 1 0 6Zm0-2a1 1 0 1 0 0-2 1 1 0 0 0 0 2Z"/></svg>
